X: 83
T: Preludium es-moll
C: Maria Szymanowska
%%abc-version 2.0
%%abcx-abcm2ps-target-version 5.9.1 (29 Sep 2008)
%%abc-creator hum2abc beta
%%abcx-conversion-date 2021/10/04 07:38:39
%%abc-edited-by Anna Matuszewska
%%abcx-initial-encoding-date 2020-07-19
%%humdrum-veritas 913506993
%%humdrum-veritas-data 1385853930
%%linebreak <none>
%%barnumbers 0
L: 1/16
M: 2/4
N: Derived from pl-kozmzk--mzk-m-31--010_szymanowska-maria--preludium-es-moll.krn
%%staves {1 2}
V: 1 clef=treble
V: 2 clef=bass
K: Gb
[V:1] z8 | 
[V:2] E,,F,,G,,A,, B,,=C,=D,E, | 
[V:1] z8 | 
[V:2] F,G,A,B, =C=DEF | 
[V:1] EFGA B=c=de | 
[V:2] E,2[G,2B,2E2][G,2B,2E2][G,2B,2E2] | 
[V:1] fgab =c'=d'e'f' | 
[V:2] D,2[G,2B,2E2][G,2B,2E2][G,2B,2E2] | 
[V:1] !wedge!g'=d'e'!wedge!=a !accent!bgfe | 
[V:2] !wedge!C,2 [G,2C2E2][G,2C2E2] z2 | 
[V:1] !wedge!g'=d'e'!wedge!=a !accent!bgfe | 
[V:2] !wedge!B,,2 [G,2B,2E2][G,2B,2E2] z2 | 
[V:1] z c!accent![cg]f z d!accent![da]=g | 
[V:2] A,,2[A,2C2F2] B,,2[B,2D2=G2] | 
[V:1] z e!accent![eb]a z e!accent![eg']=a | 
[V:2] C,2[C2E2A2] C,2[C2E2=A2] | 
[V:1] z =d!accent![dfc']b z B!accent![Bea]g | 
[V:2] B,,2[K:clef=treble] B2B,2B2 | 
[V:1] z A!accent![A=dg]f z G!accent![GBf]e | 
[V:2] B,2B2 B,2B2 | 
[V:1] z F[FAe]=d z G[GBf]e | 
[V:2] B,2B2 B,2B2 | 
[V:1] z A[A=dg]f z e[g=a]e | 
[V:2] B,2B2[K:clef=bass] B,2B,,2 | 
[V:1] z =d[fb]d z E[F=A]E | 
[V:2] B,2B,,2 !accent!_C2B,,2 | 
[V:1] z =D[FB]D z [E_Gc]=dc | 
[V:2] B,2B,,2 !accent!=A,2B,,2 | 
[V:1] {/=D} !turn!B2>=c2 =dBFD | 
[V:2] [B,,4B,4]z4 | 
[V:1] B,8- | 
[V:2] !turn!B,,2>=C,2 =D,B,,F,,=D,, | 
[V:1] B,4!accent!b4- | 
[V:2] B,,,8 | 
[V:1] b2a2f2g2 | 
[V:2] B,,4z4 | 
[V:1] e2B2 (3z ef(3!accent!gfe | 
[V:2] (3z E,G,(3B,EFG4 | 
[V:1] (3e=dcB2- (3:2:6Bfga!accent!gf | 
[V:2] (3z F,B,(3=DFGA4 | 
[V:1] (3f=deb2- b/=a/b/a/c'/b/_a/g/ | 
[V:2] (3z G,B,(3EFG[K:clef=treble]B4 | 
[V:1] gf {/fgfef} (3agf {/!fermata!c}!fermata!c''4 & c2x6 [|] 
[V:2] [A,4C4E4F4]!fermata![A,4C4E4F4] [|] 
[V:1] (11:8:22b'/a'/g'/f'/e'/=d'/c'/b/a/g/f/e/=d/c/B/A/G/F/E/=D/C/B,/ [|] 
[V:2] x8 [|] 
[V:1] (7:4:7A,/B,/C/B,/=A,/B,/=C/ (3:2:6=D/C/B,/C/D/E/ [|] 
[V:2] x4 [|] 
[V:1] (3:2:18F/E/=D/E/F/G/ A/G/F/G/A/B/ .d/._c/.B/.A/.=G/._G/ | 
[V:2] x6 | 
[V:1] (3:2:6FGFEFG (3:2:6AGFA!accent!gf/ & C4x4 | 
[V:2] [K:clef=bass][A,,4A,4]z4 | 
[V:1] [G2B2e2] z2 [F2A2=d2] z2 | 
[V:2] [B,,2B,2] z2 [B,,2B,2] z2 | 
[V:1] (3:2:6FGBeBG (3z EG(3BGE | 
[V:2] !wedge!E,2 z2 !wedge!=D2 z2 | 
[V:1] (3z B,G(3EB,G,x4 |]  
[V:2] =A,2 z2!fermata!E,,4 & x4!fermata!E,4 |]  


